src/components/atoms/Icon/svgs/minimize.svg

<svg width="24" height="24" viewBox="0 0 24 24" fill="none" xmlns="http://www.w3.org/2000/svg">
    <path
        d="M8 3V6C8 6.53043 7.78929 7.03914 7.41421 7.41421C7.03914 7.78929 6.53043 8 6 8H3M21 8H18C17.4696 8 16.9609 7.78929 16.5858 7.41421C16.2107 7.03914 16 6.53043 16 6V3M16 21V18C16 17.4696 16.2107 16.9609 16.5858 16.5858C16.9609 16.2107 17.4696 16 18 16H21M3 16H6C6.53043 16 7.03914 16.2107 7.41421 16.5858C7.78929 16.9609 8 17.4696 8 18V21"
        stroke="currentColor" stroke-width="2" stroke-linecap="round" stroke-linejoin="round" />
</svg>

<svg viewBox="0 0 24 24" fill="none" xmlns="http://www.w3.org/2000/svg">
    <path d="M8 3v3a2 2 0 01-2 2H3m18 0h-3a2 2 0 01-2-2V3m0 18v-3a2 2 0 012-2h3M3 16h3a2 2 0 012 2v3" stroke="currentColor" stroke-width="2" stroke-linecap="round" stroke-linejoin="round"/>
</svg>
